X:5930
T:Gan Ainm
R:Reel
S:Natalie McMaster
H:
N:
D:Solo Album #1
Z:Adrian Scahill
M:4/4
L:1/8
K:D
f2ed eAAB|cAAB e3g|faed eAAB|dBGB d3f|\
f2ed eAAB|cAAB e3f|gfed efge|dBGB d3g||\
fded fded|cAAc e3g|fded fded|BGGB Bddg|\
fded fded|cAAc e3f|gfed efge|dBGB d3g||


